demo_output/lut_vintage.cube
# LUTor Generated 3D LUT
# Created with LUTor Style Transfer
TITLE "LUTor Style Transfer LUT"
LUT_3D_SIZE 32
DOMAIN_MIN 0.0 0.0 0.0
DOMAIN_MAX 1.0 1.0 1.0
0.482353 0.447059 0.403922
0.482353 0.447059 0.403922
0.482353 0.447059 0.403922
0.482353 0.447059 0.403922
0.482353 0.447059 0.403922
0.482353 0.447059 0.403922
0.482353 0.447059 0.403922
0.482353 0.447059 0.403922
0.482353 0.447059 0.403922
0.482353 0.447059 0.403922
0.482353 0.447059 0.403922
0.482353 0.447059 0.403922
0.482353 0.447059 0.403922
0.482353 0.447059 0.403922
0.482353 0.447059 0.403922
0.482353 0.447059 0.403922
0.482353 0.447059 0.403922
0.482353 0.447059 0.403922
0.482353 0.447059 0.403922
0.482353 0.447059 0.403922
0.482353 0.447059 0.403922
0.482353 0.447059 0.403922
0.482353 0.447059 0.403922
0.482353 0.447059 0.403922
0.482353 0.447059 0.403922
0.482353 0.447059 0.403922
0.482353 0.447059 0.403922
0.482353 0.447059 0.403922
0.482353 0.447059 0.403922
0.482353 0.447059 0.403922
0.482353 0.447059 0.403922
0.482353 0.447059 0.403922
0.482353 0.447059 0.403922
0.482353 0.447059 0.403922
0.482353 0.447059 0.403922
0.482353 0.447059 0.403922
0.482353 0.447059 0.403922
0.482353 0.447059 0.403922
0.482353 0.447059 0.403922
0.482353 0.447059 0.403922
0.482353 0.447059 0.403922
0.482353 0.447059 0.403922
0.482353 0.447059 0.403922
0.482353 0.447059 0.403922
0.482353 0.447059 0.403922
0.482353 0.447059 0.403922
0.482353 0.447059 0.403922
0.482353 0.447059 0.403922
0.482353 0.447059 0.403922
0.482353 0.447059 0.403922
0.482353 0.447059 0.403922
0.482353 0.447059 0.403922
0.482353 0.447059 0.403922
0.482353 0.447059 0.403922
0.482353 0.447059 0.403922
0.482353 0.447059 0.403922
0.482353 0.447059 0.403922
0.482353 0.447059 0.403922
0.482353 0.447059 0.403922
0.482353 0.447059 0.403922
0.482353 0.447059 0.403922
0.482353 0.447059 0.403922
0.482353 0.447059 0.403922
0.482353 0.447059 0.403922
0.482353 0.447059 0.403922
0.482353 0.447059 0.403922
0.482353 0.447059 0.403922
0.482353 0.447059 0.403922
0.482353 0.447059 0.403922
0.482353 0.447059 0.403922
0.482353 0.447059 0.403922
0.482353 0.447059 0.403922
0.482353 0.447059 0.403922
0.482353 0.447059 0.403922
0.482353 0.447059 0.403922
0.482353 0.447059 0.403922
0.482353 0.447059 0.403922
0.482353 0.447059 0.403922
0.482353 0.447059 0.403922
0.482353 0.447059 0.403922
0.482353 0.447059 0.403922
0.482353 0.447059 0.403922
0.482353 0.447059 0.403922
0.482353 0.447059 0.403922
0.482353 0.447059 0.403922
0.482353 0.447059 0.403922
0.482353 0.447059 0.403922
0.482353 0.447059 0.403922
0.482353 0.447059 0.403922
0.482353 0.447059 0.403922
0.482353 0.447059 0.403922
0.482353 0.447059 0.403922
0.482353 0.447059 0.403922
0.482353 0.447059 0.403922
0.482353 0.447059 0.403922
0.482353 0.447059 0.403922
0.482353 0.447059 0.403922
0.482353 0.447059 0.403922
0.482353 0.447059 0.403922
0.482353 0.447059 0.403922
0.482353 0.447059 0.403922
0.482353 0.447059 0.403922
0.482353 0.447059 0.403922
0.482353 0.447059 0.403922
0.482353 0.447059 0.403922
0.482353 0.447059 0.403922
0.482353 0.447059 0.403922
0.482353 0.447059 0.403922
0.482353 0.447059 0.403922
0.482353 0.447059 0.403922
0.482353 0.447059 0.403922
0.482353 0.447059 0.403922
0.482353 0.447059 0.403922
0.482353 0.447059 0.403922
0.482353 0.447059 0.403922
0.482353 0.447059 0.403922
0.482353 0.447059 0.403922
0.482353 0.447059 0.403922
0.482353 0.447059 0.403922
0.482353 0.447059 0.403922
0.482353 0.447059 0.403922
0.482353 0.447059 0.403922
0.482353 0.447059 0.403922
0.482353 0.447059 0.403922
0.482353 0.447059 0.403922
0.482353 0.447059 0.403922
0.482353 0.447059 0.403922
0.482353 0.447059 0.403922
0.482353 0.447059 0.403922
0.482353 0.447059 0.403922
0.482353 0.447059 0.403922
0.482353 0.447059 0.403922
0.482353 0.447059 0.403922
0.482353 0.447059 0.403922
0.482353 0.447059 0.403922
0.482353 0.447059 0.403922
0.482353 0.447059 0.403922
0.482353 0.447059 0.403922
0.482353 0.447059 0.403922
0.482353 0.447059 0.403922
0.482353 0.447059 0.403922
0.482353 0.447059 0.403922
0.482353 0.447059 0.403922
0.482353 0.447059 0.403922
0.482353 0.447059 0.403922
0.482353 0.447059 0.403922
0.482353 0.447059 0.403922
0.482353 0.447059 0.403922
0.482353 0.447059 0.403922
0.482353 0.447059 0.403922
0.482353 0.447059 0.403922
0.482353 0.447059 0.403922
0.482353 0.447059 0.403922
0.482353 0.447059 0.403922
0.482353 0.447059 0.403922
0.482353 0.447059 0.403922
0.482353 0.447059 0.403922
0.482353 0.447059 0.403922
0.482353 0.447059 0.403922
0.482353 0.447059 0.403922
0.482353 0.447059 0.403922
0.482353 0.447059 0.403922
0.482353 0.447059 0.403922
0.482353 0.447059 0.403922
0.482353 0.447059 0.403922
0.482353 0.447059 0.403922
0.482353 0.447059 0.403922
0.482353 0.447059 0.403922
0.482353 0.447059 0.403922
0.482353 0.447059 0.403922
0.482353 0.447059 0.403922
0.482353 0.447059 0.403922
0.482353 0.447059 0.403922
0.482353 0.447059 0.403922
0.482353 0.447059 0.403922
0.482353 0.447059 0.403922
0.482353 0.447059 0.403922
0.482353 0.447059 0.403922
0.482353 0.447059 0.403922
0.482353 0.447059 0.403922
0.482353 0.447059 0.403922
0.482353 0.447059 0.403922
0.482353 0.447059 0.403922
0.482353 0.447059 0.403922
0.482353 0.447059 0.403922
0.482353 0.447059 0.403922
0.482353 0.447059 0.403922
0.482353 0.447059 0.403922
0.482353 0.447059 0.403922
0.482353 0.447059 0.403922
0.482353 0.447059 0.403922
0.482353 0.447059 0.403922
0.482353 0.447059 0.403922
0.482353 0.447059 0.403922
0.482353 0.447059 0.403922
0.482353 0.447059 0.403922
0.482353 0.447059 0.403922
0.482353 0.447059 0.403922
0.482353 0.447059 0.403922
0.482353 0.447059 0.403922
0.482353 0.447059 0.403922
0.482353 0.447059 0.403922
0.482353 0.447059 0.403922
0.482353 0.447059 0.403922
0.482353 0.447059 0.403922
0.482353 0.447059 0.403922
0.482353 0.447059 0.403922
0.482353 0.447059 0.403922
0.482353 0.447059 0.403922
0.482353 0.447059 0.403922
0.482353 0.447059 0.403922
0.482353 0.447059 0.403922
0.482353 0.447059 0.403922
0.482353 0.447059 0.403922
0.482353 0.447059 0.403922
0.482353 0.447059 0.403922
0.482353 0.447059 0.403922
0.482353 0.447059 0.403922
0.482353 0.447059 0.403922
0.482353 0.447059 0.403922
0.482353 0.447059 0.403922
0.482353 0.447059 0.403922
0.482353 0.447059 0.403922
0.482353 0.447059 0.403922
0.482353 0.447059 0.403922
0.482353 0.447059 0.403922
0.482353 0.447059 0.403922
0.482353 0.447059 0.403922
0.482353 0.447059 0.403922
0.482353 0.447059 0.403922
0.482353 0.447059 0.403922
0.482353 0.447059 0.403922
0.482353 0.447059 0.403922
0.482353 0.447059 0.403922
0.482353 0.447059 0.403922
0.482353 0.447059 0.403922
0.482353 0.447059 0.403922
0.482353 0.447059 0.403922
0.482353 0.447059 0.403922
0.482353 0.447059 0.403922
0.482353 0.447059 0.403922
0.482353 0.447059 0.403922
0.482353 0.447059 0.403922
0.482353 0.447059 0.403922
0.482353 0.447059 0.403922
0.482353 0.447059 0.403922
0.482353 0.447059 0.403922
0.482353 0.447059 0.403922
0.482353 0.447059 0.403922
0.482353 0.447059 0.403922
0.482353 0.447059 0.403922
0.482353 0.447059 0.403922
0.482353 0.447059 0.403922
0.482353 0.447059 0.403922
0.482353 0.447059 0.403922
0.482353 0.447059 0.403922
0.482353 0.447059 0.403922
0.482353 0.447059 0.403922
0.482353 0.447059 0.403922
0.482353 0.447059 0.403922
0.482353 0.447059 0.403922
0.482353 0.447059 0.403922
0.482353 0.447059 0.403922
0.482353 0.447059 0.403922
0.482353 0.447059 0.403922
0.482353 0.447059 0.403922
0.482353 0.447059 0.403922
0.482353 0.447059 0.403922
0.482353 0.447059 0.403922
0.482353 0.447059 0.403922
0.482353 0.447059 0.403922
0.482353 0.447059 0.403922
0.482353 0.447059 0.403922
0.482353 0.447059 0.403922
0.482353 0.447059 0.403922
0.482353 0.447059 0.403922
0.482353 0.447059 0.403922
0.482353 0.447059 0.403922
0.482353 0.447059 0.403922
0.482353 0.447059 0.403922
0.482353 0.447059 0.403922
0.482353 0.447059 0.403922
0.482353 0.447059 0.403922
0.482353 0.447059 0.403922
0.482353 0.447059 0.403922
0.482353 0.447059 0.403922
0.482353 0.447059 0.403922
0.482353 0.447059 0.403922
0.482353 0.447059 0.403922
0.482353 0.447059 0.403922
0.482353 0.447059 0.403922
0.482353 0.447059 0.403922
0.482353 0.447059 0.403922
0.482353 0.447059 0.403922
0.482353 0.447059 0.403922
0.482353 0.447059 0.403922
0.482353 0.447059 0.403922
0.482353 0.447059 0.403922
0.482353 0.447059 0.403922
0.482353 0.447059 0.403922
0.482353 0.447059 0.403922
0.482353 0.447059 0.403922
0.482353 0.447059 0.403922
0.482353 0.447059 0.403922
0.482353 0.447059 0.403922
0.482353 0.447059 0.403922
0.482353 0.447059 0.403922
0.482353 0.447059 0.403922
0.482353 0.447059 0.403922
0.482353 0.447059 0.403922
0.482353 0.447059 0.403922
0.482353 0.447059 0.403922
0.482353 0.447059 0.403922
0.482353 0.447059 0.403922
0.482353 0.447059 0.403922
0.482353 0.447059 0.403922
0.482353 0.447059 0.403922
0.482353 0.447059 0.403922
0.482353 0.447059 0.403922
0.482353 0.447059 0.403922
0.482353 0.447059 0.403922
0.482353 0.447059 0.403922
0.482353 0.447059 0.403922
0.482353 0.447059 0.403922
0.482353 0.447059 0.403922
0.482353 0.447059 0.403922
0.482353 0.447059 0.403922
0.482353 0.447059 0.403922
0.482353 0.447059 0.403922
0.482353 0.447059 0.403922
0.482353 0.447059 0.403922
0.482353 0.447059 0.403922
0.482353 0.447059 0.403922
0.482353 0.447059 0.403922
0.482353 0.447059 0.403922
0.482353 0.447059 0.403922
0.482353 0.447059 0.403922
0.482353 0.447059 0.403922
0.482353 0.447059 0.403922
0.482353 0.447059 0.403922
0.482353 0.447059 0.403922
0.482353 0.447059 0.403922
0.482353 0.447059 0.403922
0.482353 0.447059 0.403922
0.482353 0.447059 0.403922
0.482353 0.447059 0.403922
0.482353 0.447059 0.403922
0.482353 0.447059 0.403922
0.482353 0.447059 0.403922
0.482353 0.447059 0.403922
0.482353 0.447059 0.403922
0.482353 0.447059 0.403922
0.482353 0.447059 0.403922
0.482353 0.447059 0.403922
0.482353 0.447059 0.403922
0.482353 0.447059 0.403922
0.482353 0.447059 0.403922
0.482353 0.447059 0.403922
0.482353 0.447059 0.403922
0.482353 0.447059 0.403922
0.482353 0.447059 0.403922
0.482353 0.447059 0.403922
0.482353 0.447059 0.403922
0.482353 0.447059 0.403922
0.482353 0.447059 0.403922
0.482353 0.447059 0.403922
0.482353 0.447059 0.403922
0.482353 0.447059 0.403922
0.482353 0.447059 0.403922
0.482353 0.447059 0.403922
0.482353 0.447059 0.403922
0.482353 0.447059 0.403922
0.482353 0.447059 0.403922
0.482353 0.447059 0.403922
0.482353 0.447059 0.403922
0.482353 0.447059 0.403922
0.482353 0.447059 0.403922
0.482353 0.447059 0.403922
0.482353 0.447059 0.403922
0.482353 0.447059 0.403922
0.482353 0.447059 0.403922
0.482353 0.447059 0.403922
0.482353 0.447059 0.403922
0.482353 0.447059 0.403922
0.482353 0.447059 0.403922
0.482353 0.447059 0.403922
0.482353 0.447059 0.403922
0.482353 0.447059 0.403922
0.482353 0.447059 0.403922
0.482353 0.447059 0.403922
0.482353 0.447059 0.403922
0.482353 0.447059 0.403922
0.482353 0.447059 0.403922
0.482353 0.447059 0.403922
0.482353 0.447059 0.403922
0.482353 0.447059 0.403922
0.482353 0.447059 0.403922
0.482353 0.447059 0.403922
0.482353 0.447059 0.403922
0.482353 0.447059 0.403922
0.482353 0.447059 0.403922
0.482353 0.447059 0.403922
0.482353 0.447059 0.403922
0.482353 0.447059 0.403922
0.482353 0.447059 0.403922
0.482353 0.447059 0.403922
0.482353 0.447059 0.403922
0.482353 0.447059 0.403922
0.482353 0.447059 0.403922
0.482353 0.447059 0.403922
0.482353 0.447059 0.403922
0.482353 0.447059 0.403922
0.482353 0.447059 0.403922
0.482353 0.447059 0.403922
0.482353 0.447059 0.403922
0.482353 0.447059 0.403922
0.482353 0.447059 0.403922
0.482353 0.447059 0.403922
0.482353 0.447059 0.403922
0.482353 0.447059 0.403922
0.482353 0.447059 0.403922
0.482353 0.447059 0.403922
0.482353 0.447059 0.403922
0.482353 0.447059 0.403922
0.482353 0.447059 0.403922
0.482353 0.447059 0.403922
0.482353 0.447059 0.403922
0.482353 0.447059 0.403922
0.482353 0.447059 0.403922
0.482353 0.447059 0.403922
0.482353 0.447059 0.403922
0.482353 0.447059 0.403922
0.482353 0.447059 0.403922
0.482353 0.447059 0.403922
0.482353 0.447059 0.403922
0.482353 0.447059 0.403922
0.482353 0.447059 0.403922
0.482353 0.447059 0.403922
0.482353 0.447059 0.403922
0.482353 0.447059 0.403922
0.482353 0.447059 0.403922
0.482353 0.447059 0.403922
0.482353 0.447059 0.403922
0.482353 0.447059 0.403922
0.482353 0.447059 0.403922
0.482353 0.447059 0.403922
0.482353 0.447059 0.403922
0.482353 0.447059 0.403922
0.482353 0.447059 0.403922
0.482353 0.447059 0.403922
0.482353 0.447059 0.403922
0.482353 0.447059 0.403922
0.482353 0.447059 0.403922
0.482353 0.447059 0.403922
0.482353 0.447059 0.403922
0.482353 0.447059 0.403922
0.482353 0.447059 0.403922
0.482353 0.447059 0.403922
0.482353 0.447059 0.403922
0.482353 0.447059 0.403922
0.482353 0.447059 0.403922
0.482353 0.447059 0.403922
0.482353 0.447059 0.403922
0.482353 0.447059 0.403922
0.482353 0.447059 0.403922
0.482353 0.447059 0.403922
0.482353 0.447059 0.403922
0.482353 0.447059 0.403922
0.482353 0.447059 0.403922
0.482353 0.447059 0.403922
0.482353 0.447059 0.403922
0.482353 0.447059 0.403922
0.482353 0.447059 0.403922
0.482353 0.447059 0.403922
0.482353 0.447059 0.403922
0.482353 0.447059 0.403922
0.482353 0.447059 0.403922
0.482353 0.447059 0.403922
0.482353 0.447059 0.403922
0.482353 0.447059 0.403922
0.482353 0.447059 0.403922
0.482353 0.447059 0.403922
0.482353 0.447059 0.403922
0.482353 0.447059 0.403922
0.482353 0.447059 0.403922
0.482353 0.447059 0.403922
0.482353 0.447059 0.403922
0.482353 0.447059 0.403922
0.482353 0.447059 0.403922
0.482353 0.447059 0.403922
0.482353 0.447059 0.403922
0.482353 0.447059 0.403922
0.482353 0.447059 0.403922
0.482353 0.447059 0.403922
0.482353 0.447059 0.403922
0.482353 0.447059 0.403922
0.482353 0.447059 0.403922
0.482353 0.447059 0.403922
0.482353 0.447059 0.403922
0.482353 0.447059 0.403922
0.482353 0.447059 0.403922
0.482353 0.447059 0.403922
0.482353 0.447059 0.403922
0.482353 0.447059 0.403922
0.482353 0.447059 0.403922
0.482353 0.447059 0.403922
0.482353 0.447059 0.403922
0.482353 0.447059 0.403922
0.482353 0.447059 0.403922
0.482353 0.447059 0.403922
0.482353 0.447059 0.403922
0.482353 0.447059 0.403922
0.482353 0.447059 0.403922
0.482353 0.447059 0.403922
0.482353 0.447059 0.403922
0.482353 0.447059 0.403922
0.482353 0.447059 0.403922
0.482353 0.447059 0.403922
0.482353 0.447059 0.403922
0.482353 0.447059 0.403922
0.482353 0.447059 0.403922
0.482353 0.447059 0.403922
0.482353 0.447059 0.403922
0.482353 0.447059 0.403922
0.482353 0.447059 0.403922
0.482353 0.447059 0.403922
0.482353 0.447059 0.403922
0.482353 0.447059 0.403922
0.482353 0.447059 0.403922
0.482353 0.447059 0.403922
0.482353 0.447059 0.403922
0.482353 0.447059 0.403922
0.482353 0.447059 0.403922
0.482353 0.447059 0.403922
0.482353 0.447059 0.403922
0.482353 0.447059 0.403922
0.482353 0.447059 0.403922
0.482353 0.447059 0.403922
0.482353 0.447059 0.403922
0.482353 0.447059 0.403922
0.482353 0.447059 0.403922
0.482353 0.447059 0.403922
0.482353 0.447059 0.403922
0.482353 0.447059 0.403922
0.482353 0.447059 0.403922
0.482353 0.447059 0.403922
0.482353 0.447059 0.403922
0.482353 0.447059 0.403922
0.482353 0.447059 0.403922
0.482353 0.447059 0.403922
0.482353 0.447059 0.403922
0.482353 0.447059 0.403922
0.482353 0.447059 0.403922
0.482353 0.447059 0.403922
0.482353 0.447059 0.403922
0.482353 0.447059 0.403922
0.482353 0.447059 0.403922
0.482353 0.447059 0.403922
0.482353 0.447059 0.403922
0.482353 0.447059 0.403922
0.482353 0.447059 0.403922
0.482353 0.447059 0.403922
0.482353 0.447059 0.403922
0.482353 0.447059 0.403922
0.482353 0.447059 0.403922
0.482353 0.447059 0.403922
0.482353 0.447059 0.403922
0.482353 0.447059 0.403922
0.482353 0.447059 0.403922
0.482353 0.447059 0.403922
0.482353 0.447059 0.403922
0.482353 0.447059 0.403922
0.482353 0.447059 0.403922
0.482353 0.447059 0.403922
0.482353 0.447059 0.403922
0.482353 0.447059 0.403922
0.482353 0.447059 0.403922
0.482353 0.447059 0.403922
0.482353 0.447059 0.403922
0.482353 0.447059 0.403922
0.482353 0.447059 0.403922
0.482353 0.447059 0.403922
0.482353 0.447059 0.403922
0.482353 0.447059 0.403922
0.482353 0.447059 0.403922
0.482353 0.447059 0.403922
0.482353 0.447059 0.403922
0.482353 0.447059 0.403922
0.482353 0.447059 0.403922
0.482353 0.447059 0.403922
0.482353 0.447059 0.403922
0.482353 0.447059 0.403922
0.482353 0.447059 0.403922
0.482353 0.447059 0.403922
0.482353 0.447059 0.403922
0.482353 0.447059 0.403922
0.482353 0.447059 0.403922
0.482353 0.447059 0.403922
0.482353 0.447059 0.403922
0.482353 0.447059 0.403922
0.482353 0.447059 0.403922
0.482353 0.447059 0.403922
0.482353 0.447059 0.403922
0.482353 0.447059 0.403922
0.482353 0.447059 0.403922
0.482353 0.447059 0.403922
0.482353 0.447059 0.403922
0.482353 0.447059 0.403922
0.482353 0.447059 0.403922
0.482353 0.447059 0.403922
0.482353 0.447059 0.403922
0.482353 0.447059 0.403922
0.482353 0.447059 0.403922
0.482353 0.447059 0.403922
0.482353 0.447059 0.403922
0.482353 0.447059 0.403922
0.482353 0.447059 0.403922
0.482353 0.447059 0.403922
0.482353 0.447059 0.403922
0.482353 0.447059 0.403922
0.482353 0.447059 0.403922
0.482353 0.447059 0.403922
0.482353 0.447059 0.403922
0.482353 0.447059 0.403922
0.482353 0.447059 0.403922
0.482353 0.447059 0.403922
0.482353 0.447059 0.403922
0.482353 0.447059 0.403922
0.482353 0.447059 0.403922
0.482353 0.447059 0.403922
0.482353 0.447059 0.403922
0.482353 0.447059 0.403922
0.482353 0.447059 0.403922
0.482353 0.447059 0.403922
0.482353 0.447059 0.403922
0.482353 0.447059 0.403922
0.482353 0.447059 0.403922
0.482353 0.447059 0.403922
0.482353 0.447059 0.403922
0.482353 0.447059 0.403922
0.482353 0.447059 0.403922
0.482353 0.447059 0.403922
0.482353 0.447059 0.403922
0.482353 0.447059 0.403922
0.482353 0.447059 0.403922
0.482353 0.447059 0.403922
0.482353 0.447059 0.403922
0.482353 0.447059 0.403922
0.482353 0.447059 0.403922
0.482353 0.447059 0.403922
0.482353 0.447059 0.403922
0.482353 0.447059 0.403922
0.482353 0.447059 0.403922
0.482353 0.447059 0.403922
0.482353 0.447059 0.403922
0.482353 0.447059 0.403922
0.482353 0.447059 0.403922
0.482353 0.447059 0.403922
0.482353 0.447059 0.403922
0.482353 0.447059 0.403922
0.482353 0.447059 0.403922
0.482353 0.447059 0.403922
0.482353 0.447059 0.403922
0.482353 0.447059 0.403922
0.482353 0.447059 0.403922
0.482353 0.447059 0.403922
0.482353 0.447059 0.403922
0.482353 0.447059 0.403922
0.482353 0.447059 0.403922
0.482353 0.447059 0.403922
0.482353 0.447059 0.403922
0.482353 0.447059 0.403922
0.482353 0.447059 0.403922
0.482353 0.447059 0.403922
0.482353 0.447059 0.403922
0.482353 0.447059 0.403922
0.482353 0.447059 0.403922
0.482353 0.447059 0.403922
0.482353 0.447059 0.403922
0.482353 0.447059 0.403922
0.482353 0.447059 0.403922
0.482353 0.447059 0.403922
0.482353 0.447059 0.403922
0.482353 0.447059 0.403922
0.482353 0.447059 0.403922
0.482353 0.447059 0.403922
0.482353 0.447059 0.403922
0.482353 0.447059 0.403922
0.482353 0.447059 0.403922
0.482353 0.447059 0.403922
0.482353 0.447059 0.403922
0.482353 0.447059 0.403922
0.482353 0.447059 0.403922
0.482353 0.447059 0.403922
0.482353 0.447059 0.403922
0.482353 0.447059 0.403922
0.482353 0.447059 0.403922
0.482353 0.447059 0.403922
0.482353 0.447059 0.403922
0.482353 0.447059 0.403922
0.482353 0.447059 0.403922
0.482353 0.447059 0.403922
0.482353 0.447059 0.403922
0.482353 0.447059 0.403922
0.482353 0.447059 0.403922
0.482353 0.447059 0.403922
0.482353 0.447059 0.403922
0.482353 0.447059 0.403922
0.482353 0.447059 0.403922
0.482353 0.447059 0.403922
0.482353 0.447059 0.403922
0.482353 0.447059 0.403922
0.482353 0.447059 0.403922
0.482353 0.447059 0.403922
0.482353 0.447059 0.403922
0.482353 0.447059 0.403922
0.482353 0.447059 0.403922
0.482353 0.447059 0.403922
0.482353 0.447059 0.403922
0.482353 0.447059 0.403922
0.482353 0.447059 0.403922
0.482353 0.447059 0.403922
0.482353 0.447059 0.403922
0.482353 0.447059 0.403922
0.482353 0.447059 0.403922
0.482353 0.447059 0.403922
0.482353 0.447059 0.403922
0.482353 0.447059 0.403922
0.482353 0.447059 0.403922
0.482353 0.447059 0.403922
0.482353 0.447059 0.403922
0.482353 0.447059 0.403922
0.482353 0.447059 0.403922
0.482353 0.447059 0.403922
0.482353 0.447059 0.403922
0.482353 0.447059 0.403922
0.482353 0.447059 0.403922
0.482353 0.447059 0.403922
0.482353 0.447059 0.403922
0.482353 0.447059 0.403922
0.482353 0.447059 0.403922
0.482353 0.447059 0.403922
0.482353 0.447059 0.403922
0.482353 0.447059 0.403922
0.482353 0.447059 0.403922
0.482353 0.447059 0.403922
0.482353 0.447059 0.403922
0.482353 0.447059 0.403922
0.482353 0.447059 0.403922
0.482353 0.447059 0.403922
0.482353 0.447059 0.403922
0.482353 0.447059 0.403922
0.482353 0.447059 0.403922
0.482353 0.447059 0.403922
0.482353 0.447059 0.403922
0.482353 0.447059 0.403922
0.482353 0.447059 0.403922
0.482353 0.447059 0.403922
0.482353 0.447059 0.403922
0.482353 0.447059 0.403922
0.482353 0.447059 0.403922
0.482353 0.447059 0.403922
0.482353 0.447059 0.403922
0.482353 0.447059 0.403922
0.482353 0.447059 0.403922
0.482353 0.447059 0.403922
0.482353 0.447059 0.403922
0.482353 0.447059 0.403922
0.482353 0.447059 0.403922
0.482353 0.447059 0.403922
0.482353 0.447059 0.403922
0.482353 0.447059 0.403922
0.482353 0.447059 0.403922
0.482353 0.447059 0.403922
0.482353 0.447059 0.403922
0.482353 0.447059 0.403922
0.482353 0.447059 0.403922
0.482353 0.447059 0.403922
0.482353 0.447059 0.403922
0.482353 0.447059 0.403922
0.482353 0.447059 0.403922
0.482353 0.447059 0.403922
0.482353 0.447059 0.403922
0.482353 0.447059 0.403922
0.482353 0.447059 0.403922
0.482353 0.447059 0.403922
0.482353 0.447059 0.403922
0.482353 0.447059 0.403922
0.482353 0.447059 0.403922
0.482353 0.447059 0.403922
0.482353 0.447059 0.403922
0.482353 0.447059 0.403922
0.482353 0.447059 0.403922
0.482353 0.447059 0.403922
0.482353 0.447059 0.403922
0.482353 0.447059 0.403922
0.482353 0.447059 0.403922
0.482353 0.447059 0.403922
0.482353 0.447059 0.403922
0.482353 0.447059 0.403922
0.482353 0.447059 0.403922
0.482353 0.447059 0.403922
0.482353 0.447059 0.403922
0.482353 0.447059 0.403922
0.482353 0.447059 0.403922
0.482353 0.447059 0.403922
0.482353 0.447059 0.403922
0.482353 0.447059 0.403922
0.482353 0.447059 0.403922
0.482353 0.447059 0.403922
0.482353 0.447059 0.403922
0.482353 0.447059 0.403922
0.482353 0.447059 0.403922
0.482353 0.447059 0.403922
0.482353 0.447059 0.403922
0.482353 0.447059 0.403922
0.482353 0.447059 0.403922
0.482353 0.447059 0.403922
0.482353 0.447059 0.403922
0.482353 0.447059 0.403922
0.482353 0.447059 0.403922
0.482353 0.447059 0.403922
0.482353 0.447059 0.403922
0.482353 0.447059 0.403922
0.482353 0.447059 0.403922
0.482353 0.447059 0.403922
0.482353 0.447059 0.403922
0.482353 0.447059 0.403922
0.482353 0.447059 0.403922
0.482353 0.447059 0.403922
0.482353 0.447059 0.403922
0.482353 0.447059 0.403922
0.482353 0.447059 0.403922
0.482353 0.447059 0.403922
0.482353 0.447059 0.403922
0.482353 0.447059 0.403922
0.482353 0.447059 0.403922
0.482353 0.447059 0.403922
0.482353 0.447059 0.403922
0.482353 0.447059 0.403922
0.482353 0.447059 0.403922
0.482353 0.447059 0.403922
0.482353 0.447059 0.403922
0.482353 0.447059 0.403922
0.482353 0.447059 0.403922
0.482353 0.447059 0.403922
0.482353 0.447059 0.403922
0.482353 0.447059 0.403922
0.482353 0.447059 0.403922
0.482353 0.447059 0.403922
0.482353 0.447059 0.403922
0.482353 0.447059 0.403922
0.482353 0.447059 0.403922
0.482353 0.447059 0.403922
0.482353 0.447059 0.403922
0.482353 0.447059 0.403922
0.482353 0.447059 0.403922
0.482353 0.447059 0.403922
0.482353 0.447059 0.403922
0.482353 0.447059 0.403922
0.482353 0.447059 0.403922
0.482353 0.447059 0.403922
0.482353 0.447059 0.403922
0.482353 0.447059 0.403922
0.482353 0.447059 0.403922
0.482353 0.447059 0.403922
0.482353 0.447059 0.403922
0.482353 0.447059 0.403922
0.482353 0.447059 0.403922
0.482353 0.447059 0.403922
0.482353 0.447059 0.403922
0.482353 0.447059 0.403922
0.482353 0.447059 0.403922
0.482353 0.447059 0.403922
0.482353 0.447059 0.403922
0.482353 0.447059 0.403922
0.482353 0.447059 0.403922
0.482353 0.447059 0.403922
0.482353 0.447059 0.403922
0.482353 0.447059 0.403922
0.482353 0.447059 0.403922
0.482353 0.447059 0.403922
0.482353 0.447059 0.403922
